X: 392
%
U:~=!turn!
T: Miss Charters
C:Daniel Dow
O:Scotland
B:Keith Norman MacDonald : "The Skye collection of the best reels & strathspeys extant" : 1887
Z:Ralph Palmer
R:Reel
M:C|
L:1/8
K:G aeolian
d | (ga)ba Tg2 (Tfd) | (cd)fg agfa | (ga)ba Tg2 (Tfd) | cdfA G/G/G TG :| c | (B/c/d) (BG) (B{/c}d)gB | (A/B/c) (AF) (A{/B}c)fc |
(B/c/d) (BG) (B{/c}d)gB | AG^FG G/G/G (GA) | (B/c/d) BG (B{/c}d)gB | (A/B/c) (AF) (A{/B}c)fc | Bcd=e fgfd | cfcA G/G/G TG |]


